X: 08063
T: LARRY KULLGREN'S JIG
C: Bob McQuillen 10 Nov 90
B: Bob's Note Book 8 #63
%R: jig
Z: 2021 John Chambers <jc:trillian.mit.edu>
M: 6/8
L: 1/8
K: A
cB \
| AFA EAB | cec BAc | eae fec | ecA BcB |\
| AFA EAB | cec BAc | eaf eAc | BAA A :|
|: ce \
| fef ece | faf e2e | fec ABc | BAF FEF |\
| ABA FEF | Ace f2a | efe cAB | cAA A :|
%%begintext align
%% It was
%% always a pleasure to see Police Officer Larry
%% Kullgren when he would stop by at the Francestown
%% Dance to visit for a few minutes and
%% listen to the music. We miss him a lot
%% and send much love to his family --
%%endtext

%%sep 1 1 500

%%sep 1 1 500

